docs/img/about/icon-5.svg

<svg width="71" height="71" viewBox="0 0 71 71" fill="none" xmlns="http://www.w3.org/2000/svg">
<path d="M9.74487 14.4919L36.008 6.8269L62.2449 14.4919V30.2098C62.2449 46.7298 51.672 59.938 35.9992 65.1602C20.3222 59.9394 9.74487 46.7269 9.74487 30.2025V14.4919Z" stroke="white" stroke-width="4" stroke-linejoin="round"/>
<path d="M50.3664 29.1369C50.3534 28.967 50.3066 28.8017 50.2289 28.6513C50.1512 28.5008 50.0443 28.3685 49.9148 28.2626C49.7853 28.1567 49.6361 28.0794 49.4763 28.0356C49.3166 27.9918 49.1498 27.9824 48.9864 28.008C46.3734 28.4379 40.2474 30.9309 35.9949 30.9309C31.7424 30.9309 25.6164 28.4379 23.0034 28.008C22.84 27.9821 22.6733 27.9913 22.5135 28.0349C22.3538 28.0786 22.2045 28.1557 22.075 28.2615C21.9455 28.3673 21.8385 28.4995 21.7608 28.6499C21.6831 28.8003 21.6363 28.9655 21.6234 29.1354C21.4104 31.5046 20.9949 37.8128 20.9949 38.7686C20.9949 40.0522 26.2029 42.9937 29.9949 42.9937C33.6729 42.9937 34.4199 38.7686 35.9949 38.7686C37.5699 38.7686 38.3169 42.9937 41.9949 42.9937C45.7869 42.9937 50.9949 40.0522 50.9949 38.7686C50.9949 37.8128 50.5794 31.5046 50.3664 29.1369ZM32.4849 36.6839C31.9554 37.1757 30.4824 38.3387 28.6884 37.9752C26.8944 37.6118 25.8099 35.9292 25.4394 35.2565C25.3955 35.1789 25.3782 35.0885 25.3901 34.9996C25.4021 34.9107 25.4427 34.8285 25.5054 34.7662C26.0349 34.2744 27.5079 33.1115 29.3034 33.4749C31.0974 33.8383 32.1819 35.5209 32.5524 36.1937C32.5958 36.2714 32.6127 36.3619 32.6005 36.4508C32.5883 36.5396 32.5476 36.6217 32.4849 36.6839ZM46.5504 35.2565C46.1814 35.9307 45.0969 37.6118 43.3014 37.9752C41.5074 38.3387 40.0329 37.1757 39.5049 36.6839C39.4422 36.6217 39.4015 36.5396 39.3892 36.4508C39.377 36.3619 39.394 36.2714 39.4374 36.1937C39.8064 35.5194 40.8909 33.8383 42.6864 33.4749C44.4804 33.1115 45.9549 34.2744 46.4829 34.7662C46.546 34.8282 46.5871 34.9103 46.5993 34.9992C46.6116 35.0882 46.5943 35.1789 46.5504 35.2565Z" fill="white"/>
</svg>

<svg width="71" height="71" fill="none" xmlns="http://www.w3.org/2000/svg"><path d="M9.745 14.492l26.263-7.665 26.237 7.665V30.21c0 16.52-10.573 29.728-26.246 34.95C20.322 59.94 9.745 46.727 9.745 30.203V14.492z" stroke="#fff" stroke-width="4" stroke-linejoin="round"/><path d="M50.366 29.137a1.27 1.27 0 00-.137-.486 1.231 1.231 0 00-.314-.388 1.19 1.19 0 00-.929-.255c-2.613.43-8.739 2.923-12.991 2.923-4.253 0-10.379-2.493-12.992-2.923a1.166 1.166 0 00-.928.254 1.23 1.23 0 00-.314.388c-.078.15-.125.316-.138.485-.213 2.37-.628 8.678-.628 9.634 0 1.283 5.208 4.225 9 4.225 3.678 0 4.425-4.225 6-4.225 1.575 0 2.322 4.225 6 4.225 3.792 0 9-2.942 9-4.225 0-.956-.416-7.264-.629-9.632zm-17.881 7.547c-.53.492-2.003 1.655-3.797 1.291-1.794-.363-2.878-2.046-3.249-2.718a.411.411 0 01.066-.49c.53-.493 2.003-1.656 3.798-1.292 1.794.363 2.879 2.046 3.25 2.719a.413.413 0 01-.068.49zm14.065-1.427c-.369.674-1.453 2.355-3.249 2.718-1.794.364-3.268-.8-3.796-1.291a.407.407 0 01-.068-.49c.37-.675 1.454-2.356 3.25-2.72 1.793-.362 3.268.8 3.796 1.292a.404.404 0 01.067.49z" fill="#fff"/></svg>
